X:0
T:The Strathspey King (J. Scott Skinner)
Z:Jack Campin <http://www.campin.me.uk/> version 1.0 September 2001
C:Geo. S. McLennan
S:G.S. McLennan, Highland Bagpipe Music book 1, 1929
B:NLS MH.s.234
R:Strathspey
M:C
L:1/8
Q:1/4=112
K:Hp
   {Gdc}d2  {gfg}f>d {g}A2  {GdGe}A>{d}B|  {e}G>{d}B    {e}A>d   {gcd}c>e {a}(3gfe |\
   {Gdc}d2  {gfg}f>d {g}A2  {GdGe}A>d   |{gcd}c>e   {gAGAG}A>g   {afg}f>a    (3gfe:|\
   {Gdc}d2  {gfg}f>d {g}f<a       d<f   |  {g}c<e       {g}A>{d}c  {g}e>f {a}(3gfe |\
[1 {Gdc}d2  {gfg}f>d {g}f<a       d<f   |  {g}c<e   {gAGAG}A>g   {afg}f>a    (3gfe:|\
[2 {Gdc}d>f {gBG}B>d {e}A>{d}B {e}G>{d}B|  {e}A>{d}c  {gBG}B>d   {gcd}c>e {a}(3gfe|]
